public/images/social_media/facebook.svg

<svg width="19" height="19" viewBox="0 0 19 19" fill="none" xmlns="http://www.w3.org/2000/svg">
<g clip-path="url(#clip0_742_4323)">
<rect y="0.0166016" width="18.8852" height="18.8852" rx="9.44262" fill="#181A1C"/>
<path d="M13.1184 12.1887L13.537 9.45918H10.9182V7.68868C10.9182 6.94176 11.2833 6.21327 12.4563 6.21327H13.6477V3.8895C13.6477 3.8895 12.567 3.70508 11.5342 3.70508C9.37638 3.70508 7.96737 5.01266 7.96737 7.37885V9.45918H5.56982V12.1887H7.96737V18.7875C8.44872 18.8631 8.94114 18.9018 9.44278 18.9018C9.94441 18.9018 10.4368 18.8631 10.9182 18.7875V12.1887H13.1184Z" fill="white"/>
</g>
<defs>
<clipPath id="clip0_742_4323">
<rect y="0.0166016" width="18.8852" height="18.8852" rx="9.44262" fill="white"/>
</clipPath>
</defs>
</svg>

<svg xmlns="http://www.w3.org/2000/svg" width="19" height="19" fill="none"><g clip-path="url(#a)"><rect width="18.885" height="18.885" y=".017" fill="#181A1C" rx="9.443"/><path fill="#fff" d="m13.118 12.189.419-2.73h-2.619V7.69c0-.747.365-1.476 1.538-1.476h1.192V3.89s-1.081-.184-2.114-.184c-2.158 0-3.567 1.308-3.567 3.674v2.08H5.57v2.73h2.397v6.599a9.501 9.501 0 0 0 2.951 0v-6.6h2.2Z"/></g><defs><clipPath id="a"><rect width="18.885" height="18.885" y=".017" fill="#fff" rx="9.443"/></clipPath></defs></svg>
